src/assets/duotone/Support24.svg

<svg width="24" height="24" viewBox="0 0 24 24"  xmlns="http://www.w3.org/2000/svg">
<path opacity="0.4" d="M18 18.8597H17.24C16.44 18.8597 15.68 19.1697 15.12 19.7297L13.41 21.4197C12.63 22.1897 11.36 22.1897 10.58 21.4197L8.87 19.7297C8.31 19.1697 7.54 18.8597 6.75 18.8597H6C4.34 18.8597 3 17.5298 3 15.8898V4.97974C3 3.33974 4.34 2.00977 6 2.00977H18C19.66 2.00977 21 3.33974 21 4.97974V15.8898C21 17.5198 19.66 18.8597 18 18.8597Z" />
<path d="M10.3802 14.5099H7.70023C7.26023 14.5099 6.85023 14.2999 6.59023 13.9399C6.34023 13.5999 6.28022 13.18 6.40022 12.78C6.75022 11.71 7.61022 11.1299 8.37022 10.6099C9.17022 10.0699 9.62022 9.72996 9.62022 9.14996C9.62022 8.62996 9.20022 8.20996 8.68022 8.20996C8.16022 8.20996 7.74023 8.62996 7.74023 9.14996C7.74023 9.55996 7.40023 9.89996 6.99023 9.89996C6.58023 9.89996 6.24023 9.55996 6.24023 9.14996C6.24023 7.80996 7.33022 6.70996 8.68022 6.70996C10.0302 6.70996 11.1202 7.79996 11.1202 9.14996C11.1202 10.56 10.0602 11.2799 9.21024 11.8599C8.68024 12.2199 8.18022 12.5599 7.93022 13.0099H10.3702C10.7802 13.0099 11.1202 13.3499 11.1202 13.7599C11.1202 14.1699 10.7902 14.5099 10.3802 14.5099Z" />
<path d="M16.0404 14.5099C15.6304 14.5099 15.2904 14.1699 15.2904 13.7599V13.0699H13.3304C13.3304 13.0699 13.3304 13.0699 13.3204 13.0699C12.8304 13.0699 12.3804 12.81 12.1304 12.39C11.8804 11.96 11.8804 11.4299 12.1304 11.0099C12.8104 9.83995 13.6004 8.50991 14.3204 7.34991C14.6404 6.83991 15.2504 6.60996 15.8204 6.76996C16.3904 6.93996 16.7904 7.45993 16.7804 8.05993V11.58H17.0004C17.4104 11.58 17.7504 11.92 17.7504 12.33C17.7504 12.74 17.4104 13.08 17.0004 13.08H16.7904V13.77C16.7904 14.18 16.4604 14.5099 16.0404 14.5099ZM15.2904 8.63995C14.7004 9.59995 14.0904 10.6299 13.5404 11.5699H15.2904V8.63995Z" />
</svg>

<?xml version="1.0" encoding="UTF-8"?>
<svg width="24" height="24" viewBox="0 0 24 24" xmlns="http://www.w3.org/2000/svg">
 <path d="m18 18.86h-0.76c-0.8 0-1.56 0.31-2.12 0.87l-1.71 1.69c-0.78 0.77-2.05 0.77-2.83 0l-1.71-1.69c-0.56-0.56-1.33-0.87-2.12-0.87h-0.75c-1.66 0-3-1.3299-3-2.9699v-10.91c0-1.64 1.34-2.97 3-2.97h12c1.66 0 3 1.33 3 2.97v10.91c0 1.63-1.34 2.9699-3 2.9699z" opacity=".4"/>
 <path d="m10.38 14.51h-2.68c-0.44 0-0.85-0.21-1.11-0.57-0.25-0.34-0.31001-0.7599-0.19001-1.1599 0.35-1.07 1.21-1.6501 1.97-2.1701 0.8-0.54 1.25-0.87994 1.25-1.4599 0-0.52-0.42-0.94-0.94-0.94s-0.93999 0.42-0.93999 0.94c0 0.41-0.34 0.75-0.75 0.75s-0.75-0.34-0.75-0.75c0-1.34 1.09-2.44 2.44-2.44 1.35 0 2.44 1.09 2.44 2.44 0 1.41-1.06 2.1299-1.91 2.7099-0.53 0.36-1.03 0.7-1.28 1.15h2.44c0.41 0 0.75 0.34 0.75 0.75s-0.33 0.75-0.74 0.75z"/>
 <path d="m16.04 14.51c-0.41 0-0.75-0.34-0.75-0.75v-0.69h-1.96-0.01c-0.49 0-0.94-0.2599-1.19-0.6799-0.25-0.43-0.25-0.9601 0-1.3801 0.68-1.17 1.47-2.5 2.19-3.66 0.32-0.51 0.93-0.73995 1.5-0.57995 0.57 0.17 0.97 0.68997 0.96 1.29v3.5201h0.22c0.41 0 0.75 0.34 0.75 0.75s-0.34 0.75-0.75 0.75h-0.21v0.69c0 0.41-0.33 0.7399-0.75 0.7399zm-0.75-5.87c-0.59 0.96-1.2 1.99-1.75 2.93h1.75v-2.93z"/>
</svg>
